package/converter/svg/thin/transformer-bolt.svg

<svg xmlns="http://www.w3.org/2000/svg" viewBox="0 0 384 512"><!-- Font Awesome Pro 6.0.0-alpha2 by @fontawesome - https://fontawesome.com License - https://fontawesome.com/license (Commercial License) --><path d="M128 344H236.688L154.344 426.344C151.219 429.469 151.219 434.531 154.344 437.656C155.906 439.219 157.938 440 160 440S164.094 439.219 165.656 437.656L261.656 341.656C263.938 339.375 264.625 335.922 263.406 332.938C262.156 329.953 259.25 328 256 328H147.312L229.656 245.656C232.781 242.531 232.781 237.469 229.656 234.344S221.469 231.219 218.344 234.344L122.344 330.344C120.062 332.625 119.375 336.078 120.594 339.062C121.844 342.047 124.75 344 128 344ZM376 496H352V176H376C380.406 176 384 172.422 384 168S380.406 160 376 160H288V112H336C340.406 112 344 108.422 344 104S340.406 96 336 96H288V64H336C340.406 64 344 60.422 344 56S340.406 48 336 48H288V8C288 3.578 284.406 0 280 0S272 3.578 272 8V48H224C219.594 48 216 51.578 216 56S219.594 64 224 64H272V96H224C219.594 96 216 99.578 216 104S219.594 112 224 112H272V160H112V112H160C164.406 112 168 108.422 168 104S164.406 96 160 96H112V64H160C164.406 64 168 60.422 168 56S164.406 48 160 48H112V8C112 3.578 108.406 0 104 0S96 3.578 96 8V48H48C43.594 48 40 51.578 40 56S43.594 64 48 64H96V96H48C43.594 96 40 99.578 40 104S43.594 112 48 112H96V160H8C3.594 160 0 163.578 0 168S3.594 176 8 176H32V496H8C3.594 496 0 499.578 0 504S3.594 512 8 512H376C380.406 512 384 508.422 384 504S380.406 496 376 496ZM336 496H48V176H336V496Z"/></svg>

<svg xmlns="http://www.w3.org/2000/svg" viewBox="0 0 384 512"><!--! Font Awesome Pro 6.6.0 by @fontawesome - https://fontawesome.com License - https://fontawesome.com/license (Commercial License) Copyright 2024 Fonticons, Inc. --><path d="M112 8c0-4.4-3.6-8-8-8s-8 3.6-8 8l0 40L48 48c-4.4 0-8 3.6-8 8s3.6 8 8 8l48 0 0 32L48 96c-4.4 0-8 3.6-8 8s3.6 8 8 8l48 0 0 48-56 0L8 160c-4.4 0-8 3.6-8 8s3.6 8 8 8l24 0 0 320L8 496c-4.4 0-8 3.6-8 8s3.6 8 8 8l32 0 304 0 32 0c4.4 0 8-3.6 8-8s-3.6-8-8-8l-24 0 0-320 24 0c4.4 0 8-3.6 8-8s-3.6-8-8-8l-32 0-56 0 0-48 48 0c4.4 0 8-3.6 8-8s-3.6-8-8-8l-48 0 0-32 48 0c4.4 0 8-3.6 8-8s-3.6-8-8-8l-48 0 0-40c0-4.4-3.6-8-8-8s-8 3.6-8 8l0 40-48 0c-4.4 0-8 3.6-8 8s3.6 8 8 8l48 0 0 32-48 0c-4.4 0-8 3.6-8 8s3.6 8 8 8l48 0 0 48-160 0 0-48 48 0c4.4 0 8-3.6 8-8s-3.6-8-8-8l-48 0 0-32 48 0c4.4 0 8-3.6 8-8s-3.6-8-8-8l-48 0 0-40zM280 176l56 0 0 320L48 496l0-320 56 0 176 0zM116.2 336l104.1-90.2-20.1 80.3c-.6 2.4-.1 4.9 1.5 6.9s3.8 3.1 6.3 3.1l59.8 0L163.7 426.2l20.1-80.3c.6-2.4 .1-4.9-1.5-6.9s-3.8-3.1-6.3-3.1l-59.8 0zM225.8 224c-3.1 0-6.1 1.1-8.4 3.1L100.7 328.3c-3 2.6-4.7 6.3-4.7 10.2c0 7.4 6 13.5 13.5 13.5l56.3 0-20 80c-2 8.1 4.1 16 12.5 16c3.1 0 6.1-1.1 8.4-3.1L283.3 343.7c3-2.6 4.7-6.3 4.7-10.2c0-7.4-6-13.5-13.5-13.5l-56.3 0 20-80c2-8.1-4.1-16-12.5-16z"/></svg>
